X: 1
T: Resolution, or the Quaker's Grace
T: Longways for as many as will
N: "The first strain twice, and the last but once."
N: Playford's instructions:
N: The 1cu. cast off and half Figure with the 2. cu. then the man being in the wo. place, and the wo.
N: in the mans, then they take hands, three on the one side, and three on the other, and lead back and
N: turn single, then *** ** Hey on the mens side, and then on the wo. side.
O: Playford 1706
R: reel
Z: 2010 John Chambers <jc:trillian.mit.edu>
S: http://www.izaak.unh.edu/nhltmd/indexes/dancingmaster/Dance/Play4363.htm
M: C|
L: 1/8
K: D
dc | d2A2 B2dc | d2D2 E2dc | d2A2 BcdE | GFED D2 :|
FG | A2A2 A2Bc | d2d2 d2cd | B2B2 B2cd | efed c2 ||
de | d2A2 B2dc | d2D2 E2dc | d2A2 BcdE | GFED D2 ||
de | f2dc B2cd | e2cB ^A2fe | d2ef gfed | c4 B2 ||
cd | d2A2 B2dc | d2D2 E2dc | d2A2 BcdE | GFED D2 |]
